la/deviantart.svg

<svg xmlns="http://www.w3.org/2000/svg" viewBox="0 0 32 32" height="1em" width="1em">
  <path d="M 18.375 4 L 18.09375 4.3125 L 17.6875 4.6875 L 17.59375 4.8125 L 17.53125 4.9375 L 15.75 8.3125 L 15.59375 8.40625 L 8.1875 8.40625 L 8.1875 15.90625 L 11.78125 15.90625 L 8.3125 22.53125 L 8.1875 22.75 L 8.1875 28 L 13.625 28 L 13.90625 27.6875 L 14.3125 27.3125 L 14.40625 27.1875 L 14.46875 27.0625 L 16.25 23.6875 L 16.40625 23.59375 L 23.8125 23.59375 L 23.8125 16.09375 L 20.21875 16.09375 L 23.6875 9.46875 L 23.8125 9.25 L 23.8125 4 Z M 19.21875 6 L 21.8125 6 L 21.8125 8.78125 L 17.875 16.25 L 17.59375 16.84375 L 18 17.34375 L 18.34375 17.75 L 18.625 18.09375 L 21.8125 18.09375 L 21.8125 21.59375 L 15.78125 21.59375 L 15.5 21.78125 L 14.90625 22.15625 L 14.71875 22.3125 L 14.59375 22.53125 L 12.78125 26 L 10.1875 26 L 10.1875 23.21875 L 14.09375 15.75 L 14.40625 15.1875 L 14 14.65625 L 13.65625 14.25 L 13.375 13.90625 L 10.1875 13.90625 L 10.1875 10.40625 L 16.21875 10.40625 L 16.46875 10.21875 L 17.0625 9.84375 L 17.28125 9.6875 L 17.40625 9.46875 Z"/>
</svg>

<svg xmlns="http://www.w3.org/2000/svg" viewBox="0 0 32 32" height="1em" width="1em">
  <path d="m18.375 4-.281.313-.407.375-.093.125-.063.125-1.781 3.375-.156.093H8.188v7.5h3.593l-3.469 6.625-.124.219V28h5.437l.281-.313.406-.375.094-.125.063-.125 1.781-3.375.156-.093h7.407v-7.5h-3.594l3.468-6.625.125-.219V4Zm.844 2h2.593v2.781l-3.937 7.469-.281.594.406.5.344.406.281.344h3.188v3.5H15.78l-.281.187-.594.375-.187.157-.125.218L12.78 26h-2.594v-2.781l3.907-7.469.312-.563-.406-.53-.344-.407-.281-.344h-3.188v-3.5h6.032l.25-.187.593-.375.22-.156.124-.22Z"/>
</svg>
